; generated by PrusaSlicer 2.5.0+win64 on 2022-09-27 at 02:20:32 UTC


;
;
; 

; external perimeters extrusion width = 0.60mm
; perimeters extrusion width = 0.50mm
; infill extrusion width = 0.50mm
; solid infill extrusion width = 0.50mm
; top infill extrusion width = 0.45mm
; first layer extrusion width = 0.42mm

M73 P0 R43
M73 Q0 S43
M201 X1000 Y1000 Z200 E5000 ; sets maximum accelerations, mm/sec^2
M203 X200 Y200 Z12 E120 ; sets maximum feedrates, mm / sec
M204 P1250 R1250 T1250 ; sets acceleration (P, T) and retract acceleration (R), mm/sec^2
M205 X8.00 Y8.00 Z0.40 E4.50 ; sets the jerk limits, mm/sec
M205 S0 T0 ; sets the minimum extruding and travel feed rate, mm/sec
M107
;TYPE:Custom
M862.3 P "MK3S" ; printer model check
M862.1 P0.4 ; nozzle diameter check
M115 U3.11.0 ; tell printer latest fw version
G90 ; use absolute coordinates
M83 ; extruder relative mode
M104 S215 ; set extruder temp
M140 S60 ; set bed temp
M190 S60 ; wait for bed temp
M109 S215 ; wait for extruder temp
G28 W ; home all without mesh bed level
G80 ; mesh bed leveling

G1 Z0.2 F720
G1 Y-3 F1000 ; go outside print area
G92 E0
G1 X60 E9 F1000 ; intro line
G1 X100 E12.5 F1000 ; intro line

G92 E0
M221 S95

; Don't change E values below. Excessive value can damage the printer.

M907 E538 ; set extruder motor current
G21 ; set units to millimeters
G90 ; use absolute coordinates
M83 ; use relative distances for extrusion
M900 K0.05 ; Filament gcode LA 1.5
M900 K30 ; Filament gcode LA 1.0
M107
;LAYER_CHANGE
;Z:0.2
;HEIGHT:0.2
;BEFORE_LAYER_CHANGE
G92 E0.0
;0.2


M73 P0 R42
G1 E-.8 F2100
M73 Q0 S42
G1 Z.4 F720
;AFTER_LAYER_CHANGE
;0.2
G1 X96.379 Y80.395 F10800
G1 Z.2 F720
G1 E.8 F2100
M204 S800
;TYPE:Skirt/Brim
;WIDTH:0.42
G1 F1200
G1 X96.87 Y79.917 E.02147
G1 X109.851 Y70.49 E.50302
G1 X110.457 Y70.171 E.02148
G1 X113.376 Y69.154 E.09691
G1 X116.301 Y68.273 E.0958
G1 X116.979 Y68.174 E.02147
G1 X133.021 Y68.174 E.50298
G1 X133.699 Y68.273 E.02147
G1 X136.625 Y69.154 E.09581
G1 X139.543 Y70.171 E.0969
G1 X140.149 Y70.49 E.02148
G1 X153.13 Y79.917 E.50302
G1 X153.621 Y80.395 E.02147
G1 X155.491 Y82.855 E.09689
G1 X157.234 Y85.365 E.09583
G1 X157.538 Y85.98 E.02148
G1 X162.502 Y101.24 E.50314
G1 X162.617 Y101.915 E.02148
G1 X162.685 Y104.969 E.0958
G1 X162.62 Y108.06 E.09692
G1 X162.504 Y108.735 E.02149
G1 X157.549 Y124.003 E.50329
G1 X157.246 Y124.618 E.02148
G1 X155.48 Y127.162 E.09712
G1 X153.635 Y129.59 E.09559
G1 X153.145 Y130.069 E.02149
G1 X140.157 Y139.509 E.50341
G1 X139.551 Y139.827 E.02149
G1 X136.666 Y140.834 E.09581
G1 X133.707 Y141.727 E.0969
G1 X133.029 Y141.826 E.02149
G1 X116.971 Y141.826 E.50346
G1 X116.293 Y141.727 E.02149
G1 X112.738 Y140.635 E.11661
G1 X110.449 Y139.827 E.0761
G1 X109.843 Y139.509 E.02149
G1 X96.855 Y130.069 E.50342
G1 X96.365 Y129.59 E.02149
G1 X94.167 Y126.667 E.11466
G1 X92.754 Y124.617 E.07805
G1 X92.451 Y124.003 E.02148
G1 X87.496 Y108.735 E.5033
G1 X87.38 Y108.06 E.02149
G1 X87.315 Y104.97 E.09691
G1 X87.383 Y101.915 E.0958
G1 X87.498 Y101.24 E.02148
G1 X92.462 Y85.98 E.50314
G1 X92.766 Y85.365 E.02148
G1 X94.509 Y82.855 E.09583
G1 X96.343 Y80.443 E.09501
M204 S1000
;WIPE_START
G1 F8640
G1 X96.87 Y79.917 E-.17186
G1 X98.93 Y78.42 E-.58814
;WIPE_END
G1 E-.04 F2100
G1 Z.6 F720
G1 X98.248 Y82.685 F10800
G1 Z.2 F720
G1 E.8 F2100
M204 S800
G1 F1200
G1 X98.387 Y82.567 E.00574
G1 X99.517 Y82.015 E.03943
G1 X101.128 Y81.764 E.05113
G1 X102.364 Y81.946 E.03915
G1 X103.517 Y82.439 E.03932
G1 X113.953 Y90.014 E.40434
G1 X114.175 Y89.853 E.00858
G1 X110.173 Y77.485 E.40759
G1 X110.085 Y76.46 E.03225
G1 X110.354 Y74.907 E.04944
G1 X111.051 Y73.624 E.04579
G1 X112.094 Y72.605 E.04571
G1 X113.055 Y72.077 E.03439
G1 X114.208 Y71.684 E.03818
G1 X115.426 Y71.309 E.03997
G1 X116.964 Y71.236 E.04827
G1 X118.141 Y71.518 E.03793
G1 X119.27 Y72.119 E.04011
G1 X120.343 Y73.189 E.0475
G1 X120.879 Y74.134 E.03407
G1 X124.863 Y86.369 E.40342
G1 X125.137 Y86.369 E.00858
G1 X129.158 Y74.037 E.40668
G1 X130.017 Y72.752 E.04847
G1 X130.834 Y72.053 E.03372
G1 X131.884 Y71.505 E.03713
G1 X133.001 Y71.243 E.03597
G1 X134.167 Y71.242 E.03656
G1 X136.876 Y72.048 E.0886
G1 X138.018 Y72.69 E.0411
G1 X138.935 Y73.603 E.04058
G1 X139.544 Y74.662 E.03831
G1 X139.874 Y75.835 E.0382
G1 X139.885 Y77.159 E.04152
G1 X135.81 Y89.862 E.41827
G1 X136.032 Y90.022 E.00857
G1 X146.422 Y82.477 E.4026
G1 X147.472 Y81.993 E.03626
G1 X148.658 Y81.769 E.03785
G1 X150.066 Y81.906 E.04434
G1 X151.073 Y82.254 E.03342
G1 X152.409 Y83.225 E.05178
G1 X153.306 Y84.379 E.04583
G1 X154.04 Y85.428 E.04014
G1 X154.478 Y86.367 E.03248
G1 X154.711 Y87.711 E.04278
M73 Q1 S42
G1 X154.677 Y88.56 E.02665
G1 X154.364 Y89.741 E.0383
G1 X153.752 Y90.804 E.03845
G1 X153.088 Y91.518 E.03056
G1 X142.638 Y99.123 E.40525
M73 P1 R42
G1 X142.722 Y99.383 E.00857
G1 X156.137 Y99.443 E.42064
G1 X157.333 Y99.852 E.03962
G1 X158.344 Y100.526 E.03812
G1 X159.186 Y101.463 E.03949
G1 X159.755 Y102.596 E.03975
G1 X160.003 Y103.766 E.03749
G1 X160.021 Y104.976 E.03795
G1 X160.004 Y106.166 E.03733
G1 X159.857 Y107.066 E.02858
G1 X159.301 Y108.34 E.04359
G1 X158.411 Y109.402 E.04342
G1 X157.058 Y110.249 E.05007
G1 X155.643 Y110.604 E.04576
G1 X142.747 Y110.612 E.40435
G1 X142.662 Y110.873 E.00858
G1 X153.123 Y118.481 E.40558
G1 X154.035 Y119.586 E.04493
G1 X154.471 Y120.51 E.03202
G1 X154.727 Y121.809 E.04151
G1 X154.622 Y123.119 E.04121
G1 X154.174 Y124.351 E.04112
G1 X153.343 Y125.571 E.04626
G1 X152.41 Y126.769 E.04762
G1 X151.597 Y127.437 E.03301
G1 X150.432 Y127.993 E.04045
G1 X148.953 Y128.224 E.04693
G1 X147.649 Y128.042 E.0413
G1 X146.598 Y127.606 E.03567
G1 X136.045 Y119.962 E.40858
G1 X135.824 Y120.123 E.00858
G1 X139.839 Y132.54 E.40918
G1 X139.928 Y133.374 E.02631
G1 X139.856 Y134.342 E.03044
G1 X139.382 Y135.687 E.04472
G1 X138.663 Y136.729 E.03967
G1 X137.713 Y137.533 E.03905
G1 X135.956 Y138.262 E.05963
G1 X134.584 Y138.69 E.04505
G1 X133.147 Y138.773 E.04513
G1 X131.866 Y138.482 E.04119
G1 X130.737 Y137.88 E.04011
G1 X129.6 Y136.725 E.05081
G1 X129.1 Y135.8 E.03299
G1 X125.134 Y123.604 E.4021
G1 X124.861 Y123.604 E.00858
G1 X120.827 Y135.967 E.40774
G1 X120.087 Y137.121 E.04299
G1 X118.935 Y138.102 E.04744
G1 X118.133 Y138.482 E.02783
G1 X117.31 Y138.718 E.02683
G1 X115.417 Y138.693 E.05935
G1 X113.073 Y137.934 E.07725
G1 X111.959 Y137.298 E.04024
G1 X111.079 Y136.424 E.03889
G1 X110.449 Y135.354 E.03893
G1 X110.095 Y133.911 E.04658
G1 X110.111 Y132.805 E.03468
G1 X114.183 Y120.122 E.41766
G1 X113.962 Y119.961 E.00857
G1 X103.567 Y127.51 E.4028
G1 X102.516 Y127.994 E.03629
G1 X101.382 Y128.216 E.03623
G1 X99.962 Y128.09 E.04468
G1 X98.963 Y127.758 E.033
G1 X97.578 Y126.759 E.05355
G1 X96.682 Y125.605 E.04582
G1 X95.948 Y124.556 E.04013
G1 X95.511 Y123.618 E.03246
G1 X95.279 Y122.274 E.04276
G1 X95.313 Y121.425 E.02662
G1 X95.645 Y120.199 E.03983
G1 X96.262 Y119.15 E.03816
G1 X96.901 Y118.469 E.02927
G1 X107.356 Y110.861 E.40542
G1 X107.272 Y110.601 E.00857
G1 X93.955 Y110.554 E.41753
G1 X92.899 Y110.228 E.03468
G1 X91.637 Y109.446 E.04654
G1 X90.818 Y108.523 E.03868
G1 X90.262 Y107.432 E.03839
G1 X89.997 Y106.21 E.03921
G1 X89.979 Y105.005 E.03779
G1 X89.997 Y103.809 E.0375
G1 X90.143 Y102.916 E.02836
G1 X90.688 Y101.657 E.04303
G1 X91.581 Y100.593 E.04357
G1 X92.865 Y99.761 E.04795
G1 X94.292 Y99.377 E.04633
G1 X107.26 Y99.367 E.40661
G1 X107.345 Y99.107 E.00858
G1 X96.767 Y91.391 E.41053
G1 X96.005 Y90.45 E.03795
G1 X95.538 Y89.472 E.03397
G1 X95.286 Y88.193 E.04087
G1 X95.367 Y86.959 E.03879
G1 X95.748 Y85.816 E.03777
G1 X96.644 Y84.45 E.05123
G1 X97.527 Y83.298 E.04549
G1 X98.202 Y82.724 E.02779
M204 S1000
G1 X98.443 Y83.007 F10800
M204 S800
G1 F1200
G1 X98.576 Y82.894 E.00548
G1 X99.604 Y82.383 E.036
G1 X101.157 Y82.141 E.04927
G1 X102.282 Y82.314 E.03568
G1 X103.312 Y82.756 E.03515
G1 X114.668 Y90.999 E.43996
G1 X114.889 Y90.838 E.00858
G1 X110.539 Y77.389 E.4432
G1 X110.461 Y76.498 E.02804
G1 X110.701 Y75.057 E.04582
G1 X111.336 Y73.873 E.04212
G1 X112.339 Y72.893 E.04396
G1 X113.192 Y72.429 E.03045
G1 X114.322 Y72.044 E.03743
G1 X115.515 Y71.676 E.03915
G1 X116.904 Y71.61 E.04362
G1 X117.988 Y71.863 E.03489
G1 X119.024 Y72.407 E.03669
G1 X120.057 Y73.437 E.04575
G1 X120.54 Y74.302 E.03105
G1 X124.863 Y87.587 E.43805
G1 X125.137 Y87.587 E.00859
G1 X129.486 Y74.225 E.44059
G1 X130.316 Y72.984 E.0468
G1 X131.061 Y72.355 E.0306
G1 X131.995 Y71.866 E.03303
G1 X133.026 Y71.62 E.03325
G1 X134.087 Y71.612 E.03326
G1 X136.747 Y72.403 E.08702
G1 X137.81 Y73.005 E.0383
G1 X138.621 Y73.813 E.03588
G1 X139.205 Y74.829 E.03676
G1 X139.504 Y75.912 E.03521
G1 X139.516 Y77.073 E.03642
G1 X135.099 Y90.844 E.45346
G1 X135.321 Y91.005 E.00857
G1 X146.628 Y82.794 E.43814
G1 X147.608 Y82.346 E.03379
G1 X148.65 Y82.147 E.03326
G1 X149.967 Y82.27 E.04148
G1 X150.875 Y82.576 E.03004
G1 X152.165 Y83.514 E.05
G1 X153.004 Y84.606 E.04317
G1 X153.722 Y85.632 E.03926
G1 X154.111 Y86.457 E.0286
G1 X154.336 Y87.756 E.04135
G1 X154.307 Y88.484 E.02284
G1 X154.006 Y89.619 E.03684
G1 X153.437 Y90.595 E.03542
G1 X152.852 Y91.223 E.02692
G1 X141.485 Y99.496 E.44079
G1 X141.569 Y99.756 E.00857
G1 X156.046 Y99.81 E.45393
G1 X157.146 Y100.18 E.0364
G1 X158.082 Y100.798 E.03514
G1 X158.862 Y101.657 E.0364
G1 X159.392 Y102.7 E.03667
G1 X159.626 Y103.79 E.03497
G1 X159.644 Y104.974 E.0371
G1 X159.627 Y106.148 E.03683
G1 X159.502 Y106.94 E.02513
G1 X158.994 Y108.12 E.04027
G1 X158.142 Y109.136 E.04158
G1 X156.886 Y109.913 E.04633
G1 X155.62 Y110.227 E.04089
G1 X141.588 Y110.236 E.43996
G1 X141.503 Y110.496 E.00858
G1 X152.882 Y118.772 E.44116
G1 X153.706 Y119.77 E.04057
G1 X154.106 Y120.607 E.02907
G1 X154.352 Y121.856 E.03993
G1 X154.259 Y123.016 E.03647
G1 X153.848 Y124.159 E.0381
G1 X153.035 Y125.354 E.0453
G1 X152.126 Y126.52 E.04637
G1 X151.376 Y127.131 E.03032
G1 X150.346 Y127.624 E.0358
G1 X148.924 Y127.847 E.04515
G1 X147.728 Y127.673 E.03789
G1 X146.765 Y127.267 E.03276
M73 Q2 S42
G1 X135.331 Y118.978 E.4428
G1 X135.109 Y119.139 E.00858
M73 P2 R42
G1 X139.474 Y132.637 E.4448
G1 X139.551 Y133.363 E.02288
G1 X139.482 Y134.289 E.02913
G1 X139.056 Y135.496 E.04011
G1 X138.4 Y136.458 E.03651
G1 X137.492 Y137.226 E.03729
G1 X135.821 Y137.91 E.05661
G1 X134.495 Y138.323 E.04356
G1 X133.154 Y138.395 E.04211
G1 X132.019 Y138.137 E.03649
G1 X130.983 Y137.594 E.03666
G1 X129.918 Y136.521 E.04739
G1 X129.453 Y135.667 E.0305
G1 X125.135 Y122.387 E.43785
G1 X124.861 Y122.386 E.00858
G1 X120.476 Y135.827 E.44329
G1 X119.82 Y136.853 E.03819
G1 X118.75 Y137.773 E.04423
G1 X118.01 Y138.125 E.02568
G1 X117.284 Y138.34 E.02376
G1 X115.506 Y138.325 E.05576
G1 X113.208 Y137.582 E.07571
G1 X112.169 Y136.984 E.03758
G1 X111.364 Y136.175 E.03578
G1 X110.789 Y135.189 E.03581
G1 X110.468 Y133.847 E.04325
G1 X110.487 Y132.84 E.03158
G1 X114.896 Y119.138 E.4513
G1 X114.674 Y118.978 E.00858
G1 X103.361 Y127.194 E.43839
G1 X102.38 Y127.642 E.03381
G1 X101.338 Y127.841 E.03327
G1 X100.02 Y127.717 E.0415
G1 X99.112 Y127.41 E.03006
G1 X97.822 Y126.471 E.05002
G1 X96.984 Y125.379 E.04318
G1 X96.266 Y124.353 E.03926
G1 X95.878 Y123.528 E.02859
G1 X95.654 Y122.229 E.04133
G1 X95.682 Y121.502 E.02283
G1 X95.984 Y120.367 E.03682
G1 X96.553 Y119.391 E.0354
G1 X97.138 Y118.763 E.02691
G1 X108.511 Y110.487 E.44101
G1 X108.426 Y110.227 E.00857
G1 X94.038 Y110.186 E.45114
G1 X93.074 Y109.893 E.03158
G1 X91.899 Y109.173 E.04322
G1 X91.142 Y108.328 E.03558
G1 X90.625 Y107.326 E.03534
G1 X90.373 Y106.185 E.03664
G1 X90.356 Y105.002 E.0371
G1 X90.374 Y103.828 E.03683
G1 X90.498 Y103.044 E.02488
G1 X91.022 Y101.833 E.04138
G1 X91.85 Y100.859 E.04007
G1 X93.043 Y100.095 E.04443
G1 X94.317 Y99.754 E.04133
G1 X108.417 Y99.743 E.4421
G1 X108.501 Y99.483 E.00858
G1 X97.044 Y91.134 E.44448
G1 X96.313 Y90.23 E.03646
G1 X95.889 Y89.333 E.03111
G1 X95.661 Y88.147 E.03788
G1 X95.741 Y87.01 E.03573
G1 X96.097 Y85.96 E.03476
G1 X96.954 Y84.663 E.04876
G1 X97.814 Y83.543 E.04426
G1 X98.397 Y83.046 E.02404
M204 S1000
G1 X98.64 Y83.333 F10800
M204 S800
G1 F1200
G1 X98.802 Y83.196 E.00666
G1 X99.692 Y82.751 E.03119
G1 X101.185 Y82.518 E.04739
G1 X102.198 Y82.683 E.03217
G1 X103.108 Y83.074 E.03105
G1 X115.383 Y91.984 E.47559
G1 X115.604 Y91.823 E.00858
M73 P2 R41
G1 X110.904 Y77.293 E.47882
G1 X110.837 Y76.534 E.0239
G1 X111.049 Y75.207 E.04215
G1 X111.654 Y74.078 E.04017
G1 X112.581 Y73.183 E.0404
G1 X113.328 Y72.781 E.02659
G1 X114.436 Y72.403 E.03669
G1 X115.603 Y72.043 E.03832
G1 X116.846 Y71.983 E.03901
G1 X117.837 Y72.21 E.03189
G1 X118.779 Y72.695 E.03321
M73 Q2 S41
G1 X119.772 Y73.685 E.04395
G1 X120.201 Y74.467 E.02798
G1 X124.863 Y88.806 E.47276
G1 X125.137 Y88.806 E.00859
G1 X129.836 Y74.367 E.47609
G1 X130.613 Y73.218 E.0435
G1 X131.256 Y72.678 E.02632
G1 X132.106 Y72.227 E.03017
G1 X133.092 Y71.992 E.03179
G1 X134.06 Y71.989 E.03034
G1 X136.618 Y72.758 E.08374
G1 X137.6 Y73.319 E.03549
G1 X138.335 Y74.059 E.0327
G1 X138.865 Y74.995 E.03371
G1 X139.127 Y75.94 E.03077
G1 X139.139 Y77.047 E.03469
G1 X134.387 Y91.827 E.4868
G1 X134.608 Y91.988 E.00857
G1 X146.834 Y83.11 E.47374
G1 X147.701 Y82.712 E.02991
G1 X148.693 Y82.522 E.03167
G1 X149.907 Y82.643 E.03824
G1 X150.725 Y82.923 E.02711
G1 X151.919 Y83.801 E.04647
G1 X152.701 Y84.831 E.04055
G1 X153.389 Y85.81 E.03751
G1 X153.744 Y86.547 E.02566
G1 X153.961 Y87.801 E.03989
G1 X153.937 Y88.409 E.01909
G1 X153.667 Y89.452 E.03378
G1 X153.122 Y90.386 E.0339
G1 X152.59 Y90.952 E.02436
G1 X140.33 Y99.869 E.47532
G1 X140.414 Y100.129 E.00857
G1 X155.955 Y100.177 E.48726
G1 X157.003 Y100.53 E.03467
G1 X157.82 Y101.07 E.0307
G1 X158.539 Y101.853 E.03333
G1 X159.029 Y102.805 E.03357
G1 X159.249 Y103.815 E.03242
G1 X159.267 Y104.977 E.03641
G1 X159.25 Y106.13 E.03617
G1 X159.145 Y106.813 E.02167
G1 X158.659 Y107.944 E.0386
G1 X157.875 Y108.868 E.03799
G1 X156.715 Y109.576 E.04262
G1 X155.597 Y109.85 E.03608
G1 X140.429 Y109.86 E.47557
G1 X140.345 Y110.12 E.00858
G1 X152.641 Y119.063 E.47672
G1 X153.377 Y119.956 E.03627
G1 X153.741 Y120.704 E.02609
G1 X153.977 Y121.903 E.03833
G1 X153.895 Y122.913 E.03177
G1 X153.522 Y123.968 E.03506
G1 X152.727 Y125.137 E.04433
G1 X151.842 Y126.271 E.0451
G1 X151.157 Y126.824 E.02761
G1 X150.26 Y127.256 E.0312
G1 X148.895 Y127.47 E.04334
G1 X147.809 Y127.304 E.03442
G1 X146.933 Y126.929 E.02989
G1 X134.616 Y117.994 E.4771
G1 X134.395 Y118.155 E.00858
G1 X139.109 Y132.734 E.48043
G1 X139.174 Y133.354 E.01954
G1 X139.117 Y134.189 E.02623
G1 X138.709 Y135.347 E.03852
G1 X138.135 Y136.188 E.03193
G1 X137.32 Y136.889 E.03368
G1 X135.686 Y137.557 E.05538
G1 X134.406 Y137.956 E.04203
G1 X133.161 Y138.017 E.03907
G1 X132.17 Y137.79 E.03189
G1 X131.228 Y137.305 E.03322
G1 X130.235 Y136.315 E.04396
G1 X129.806 Y135.533 E.02798
G1 X125.136 Y121.169 E.47358
G1 X124.862 Y121.169 E.00858
G1 X120.125 Y135.688 E.47885
G1 X119.552 Y136.587 E.03344
G1 X118.564 Y137.444 E.041
M73 Q3 S41
G1 X117.885 Y137.769 E.02361
G1 X117.255 Y137.963 E.02065
G1 X115.593 Y137.957 E.0521
G1 X113.344 Y137.229 E.07414
G1 X112.381 Y136.671 E.03489
M73 P3 R41
G1 X111.65 Y135.929 E.03266
G1 X111.13 Y135.025 E.03268
G1 X110.84 Y133.786 E.03992
G1 X110.863 Y132.877 E.02849
G1 X115.609 Y118.154 E.48502
G1 X115.388 Y117.994 E.00858
G1 X103.154 Y126.878 E.47404
G1 X102.287 Y127.276 E.02992
G1 X101.295 Y127.465 E.03168
G1 X100.08 Y127.344 E.03826
G1 X99.262 Y127.063 E.02712
G1 X98.068 Y126.184 E.04648
G1 X97.286 Y125.154 E.04056
G1 X96.599 Y124.175 E.03751
G1 X96.245 Y123.437 E.02565
G1 X96.029 Y122.184 E.03987
G1 X96.052 Y121.576 E.01909
G1 X96.323 Y120.534 E.03376
G1 X96.868 Y119.6 E.03389
G1 X97.4 Y119.035 E.02435
G1 X109.666 Y110.113 E.47558
G1 X109.582 Y109.852 E.00858
G1 X94.119 Y109.816 E.48484
G1 X93.248 Y109.558 E.02849
G1 X92.159 Y108.899 E.03989
G1 X91.464 Y108.131 E.03248
G1 X90.987 Y107.219 E.03227
G1 X90.75 Y106.16 E.03403
G1 X90.733 Y105.005 E.03622
G1 X90.75 Y103.846 E.03635
G1 X90.855 Y103.169 E.02147
G1 X91.329 Y102.055 E.03797
G1 X92.119 Y101.124 E.03828
G1 X93.17 Y100.451 E.03915
G1 X94.342 Y100.131 E.03809
G1 X109.574 Y100.119 E.47758
G1 X109.659 Y99.859 E.00858
G1 X97.322 Y90.878 E.47845
