; generated by PrusaSlicer 2.5.0+win64 on 2022-09-26 at 16:41:30 UTC


;
;
; 

; external perimeters extrusion width = 0.60mm
; perimeters extrusion width = 0.50mm
; infill extrusion width = 0.50mm
; solid infill extrusion width = 0.50mm
; top infill extrusion width = 0.45mm
; first layer extrusion width = 0.42mm

M73 P0 R41
M73 Q0 S42
M201 X1000 Y1000 Z200 E5000 ; sets maximum accelerations, mm/sec^2
M203 X200 Y200 Z12 E120 ; sets maximum feedrates, mm / sec
M204 P1250 R1250 T1250 ; sets acceleration (P, T) and retract acceleration (R), mm/sec^2
M205 X8.00 Y8.00 Z0.40 E4.50 ; sets the jerk limits, mm/sec
M205 S0 T0 ; sets the minimum extruding and travel feed rate, mm/sec
M107
;TYPE:Custom
M862.3 P "MK3S" ; printer model check
M862.1 P0.4 ; nozzle diameter check
M115 U3.11.0 ; tell printer latest fw version
G90 ; use absolute coordinates
M83 ; extruder relative mode
M104 S215 ; set extruder temp
M140 S60 ; set bed temp
M190 S60 ; wait for bed temp
M109 S215 ; wait for extruder temp
G28 W ; home all without mesh bed level
G80 ; mesh bed leveling

G1 Z0.2 F720
G1 Y-3 F1000 ; go outside print area
G92 E0
G1 X60 E9 F1000 ; intro line
G1 X100 E12.5 F1000 ; intro line

G92 E0
M221 S95

; Don't change E values below. Excessive value can damage the printer.

M907 E538 ; set extruder motor current
G21 ; set units to millimeters
G90 ; use absolute coordinates
M83 ; use relative distances for extrusion
M900 K0.05 ; Filament gcode LA 1.5
M900 K30 ; Filament gcode LA 1.0
M107
;LAYER_CHANGE
;Z:0.2
;HEIGHT:0.2
;BEFORE_LAYER_CHANGE
G92 E0.0
;0.2


G1 E-.8 F2100
G1 Z.4 F720
;AFTER_LAYER_CHANGE
;0.2
G1 X93.544 Y78.421 F10800
G1 Z.2 F720
G1 E.8 F2100
M204 S800
;TYPE:Skirt/Brim
;WIDTH:0.42
G1 F1200
G1 X95.189 Y76.587 E.07724
G1 X96.941 Y74.855 E.07725
G1 X98.903 Y73.141 E.0817
G1 X100.855 Y71.637 E.07724
G1 X102.893 Y70.253 E.07725
G1 X104.886 Y69.062 E.07279
G1 X107.07 Y67.924 E.07724
G1 X109.319 Y66.918 E.07724
G1 X111.624 Y66.048 E.07724
G1 X114.114 Y65.28 E.0817
G1 X116.369 Y64.73 E.07279
G1 X118.793 Y64.286 E.07725
G1 X121.238 Y63.987 E.07724
G1 X123.697 Y63.836 E.07724
G1 X126.303 Y63.836 E.0817
G1 X128.762 Y63.987 E.07724
G1 X131.067 Y64.264 E.07279
G1 X133.491 Y64.7 E.07724
G1 X135.868 Y65.276 E.07666
G1 X138.376 Y66.048 E.08229
G1 X140.681 Y66.918 E.07724
G1 X142.802 Y67.862 E.07279
G1 X145.114 Y69.062 E.0817
G1 X147.227 Y70.33 E.07724
G1 X149.145 Y71.637 E.07279
G1 X151.097 Y73.141 E.07724
G1 X152.941 Y74.746 E.07666
G1 X154.811 Y76.587 E.08229
G1 X156.456 Y78.421 E.07724
G1 X157.904 Y80.236 E.07279
G1 X159.404 Y82.367 E.0817
G1 X160.624 Y84.342 E.07279
G1 X161.795 Y86.509 E.07725
G1 X162.835 Y88.743 E.07725
G1 X163.739 Y91.034 E.07724
G1 X164.504 Y93.376 E.07725
G1 X165.097 Y95.641 E.07342
G1 X165.632 Y98.316 E.08552
G1 X165.943 Y100.617 E.07279
G1 X166.132 Y103.073 E.07724
G1 X166.173 Y105.536 E.07725
G1 X166.066 Y107.998 E.07724
G1 X165.794 Y110.589 E.0817
G1 X165.414 Y112.879 E.07279
G1 X164.87 Y115.282 E.07724
G1 X164.139 Y117.783 E.0817
G1 X163.304 Y120.101 E.07724
G1 X162.332 Y122.365 E.07725
G1 X161.226 Y124.566 E.07724
G1 X160.065 Y126.576 E.07279
G1 X158.712 Y128.635 E.07724
G1 X157.277 Y130.556 E.07518
G1 X155.552 Y132.596 E.08376
G1 X153.948 Y134.274 E.07279
G1 X152.145 Y135.953 E.07725
G1 X150.132 Y137.608 E.0817
G1 X148.137 Y139.053 E.07725
G1 X146.18 Y140.303 E.07279
G1 X144.031 Y141.506 E.07725
G1 X141.813 Y142.579 E.07724
G1 X139.402 Y143.567 E.0817
G1 X137.205 Y144.317 E.07279
G1 X134.831 Y144.977 E.07724
G1 X132.282 Y145.519 E.0817
G1 X129.987 Y145.865 E.07279
G1 X127.533 Y146.09 E.07724
G1 X125.071 Y146.168 E.07724
G1 X122.608 Y146.098 E.07725
G1 X120.013 Y145.864 E.0817
G1 X117.578 Y145.493 E.07725
G1 X115.307 Y145.01 E.07279
G1 X112.931 Y144.359 E.07724
G1 X110.598 Y143.567 E.07724
G1 X108.187 Y142.579 E.0817
G1 X105.969 Y141.506 E.07724
G1 X103.942 Y140.375 E.07279
G1 X101.746 Y138.973 E.0817
G1 X99.868 Y137.608 E.07279
G1 X97.962 Y136.047 E.07724
G1 X96.153 Y134.374 E.07724
G1 X94.448 Y132.596 E.07725
G1 X92.851 Y130.72 E.07724
G1 X91.382 Y128.766 E.07666
G1 X89.935 Y126.576 E.08229
M73 Q0 S41
G1 X88.774 Y124.566 E.07279
G1 X87.668 Y122.365 E.07725
G1 X86.644 Y119.968 E.0817
G1 X85.861 Y117.783 E.07279
G1 X85.166 Y115.42 E.07725
G1 X84.614 Y113.019 E.07724
G1 X84.226 Y110.709 E.07342
G1 X83.934 Y107.998 E.08552
G1 X83.829 Y105.678 E.07279
G1 X83.862 Y103.215 E.07724
G1 X84.042 Y100.758 E.07725
G1 X84.368 Y98.316 E.07724
G1 X84.872 Y95.759 E.0817
G1 X85.496 Y93.376 E.07725
G1 X86.213 Y91.168 E.07279
G1 X87.165 Y88.743 E.0817
G1 X88.141 Y86.636 E.07279
G1 X89.305 Y84.465 E.07725
G1 X90.675 Y82.248 E.0817
G1 X92.096 Y80.236 E.07724
G1 X93.506 Y78.468 E.07091
M204 S1000
; printing object top_pump.stl id:0 copy 0
;WIPE_START
G1 F8640
G1 X95.189 Y76.587 E-.58268
G1 X95.735 Y76.047 E-.17732
;WIPE_END
G1 E-.04 F2100
G1 Z.6 F720
G1 X111.538 Y140.537 F10800
G1 Z.2 F720
G1 E.8 F2100
M204 S800
;TYPE:Perimeter
;WIDTH:0.419999
G1 F1200
G1 X109.539 Y139.718 E.06775
G1 X107.49 Y138.731 E.07131
G1 X105.503 Y137.623 E.07131
G1 X103.587 Y136.399 E.07131
G1 X101.747 Y135.062 E.07131
G1 X99.99 Y133.618 E.07131
G1 X98.323 Y132.071 E.07131
G1 X96.751 Y130.427 E.07131
G1 X95.28 Y128.692 E.07131
G1 X93.916 Y126.872 E.07131
G1 X92.663 Y124.974 E.07131
G1 X91.526 Y123.004 E.07131
G1 X90.509 Y120.97 E.07131
G1 X89.615 Y118.879 E.07131
G1 X88.848 Y116.738 E.07131
G1 X88.21 Y114.555 E.07131
G1 X87.704 Y112.338 E.07131
G1 X87.331 Y110.094 E.07131
G1 X87.094 Y107.832 E.07131
G1 X86.991 Y105.56 E.07131
G1 X87.026 Y103.286 E.07131
G1 X87.195 Y101.018 E.07131
G1 X87.501 Y98.764 E.07131
G1 X87.94 Y96.533 E.07131
G1 X88.512 Y94.331 E.07131
G1 X89.215 Y92.168 E.07131
G1 X90.046 Y90.051 E.07131
G1 X91.002 Y87.988 E.07131
G1 X92.08 Y85.985 E.07131
G1 X93.276 Y84.05 E.07131
G1 X94.585 Y82.19 E.07131
G1 X96.003 Y80.412 E.07131
G1 X97.525 Y78.722 E.07131
G1 X99.145 Y77.126 E.07131
G1 X100.858 Y75.63 E.07131
G1 X102.657 Y74.238 E.07131
G1 X104.536 Y72.957 E.07131
M73 Q1 S41
G1 X106.477 Y71.797 E.07091
G1 X108.507 Y70.743 E.07171
G1 X110.585 Y69.818 E.07131
M73 P1 R41
G1 X112.714 Y69.019 E.07131
G1 X114.887 Y68.348 E.07131
G1 X117.097 Y67.809 E.07131
G1 X119.334 Y67.403 E.07131
G1 X121.593 Y67.132 E.07131
G1 X123.863 Y66.996 E.07131
G1 X126.137 Y66.996 E.07131
G1 X128.407 Y67.132 E.07131
G1 X130.665 Y67.403 E.07131
G1 X132.903 Y67.809 E.07131
G1 X135.113 Y68.348 E.07131
G1 X137.286 Y69.019 E.07131
G1 X139.415 Y69.818 E.07131
G1 X141.493 Y70.743 E.07131
G1 X143.512 Y71.791 E.07131
G1 X145.464 Y72.957 E.07131
G1 X147.343 Y74.238 E.07131
G1 X149.142 Y75.63 E.07131
G1 X150.855 Y77.126 E.07131
G1 X152.475 Y78.722 E.07131
G1 X153.997 Y80.412 E.07131
G1 X155.415 Y82.19 E.07131
G1 X156.724 Y84.05 E.07131
G1 X157.92 Y85.985 E.07131
G1 X158.998 Y87.988 E.07131
G1 X159.954 Y90.051 E.07131
G1 X160.785 Y92.168 E.07131
G1 X161.488 Y94.331 E.07131
G1 X162.06 Y96.533 E.07131
G1 X162.499 Y98.764 E.07131
G1 X162.805 Y101.018 E.07131
G1 X162.976 Y103.414 E.07531
G1 X163.009 Y105.56 E.06731
G1 X162.906 Y107.832 E.07131
G1 X162.669 Y110.094 E.07131
G1 X162.298 Y112.325 E.07091
G1 X161.79 Y114.555 E.07171
G1 X161.152 Y116.738 E.07131
G1 X160.385 Y118.879 E.07131
G1 X159.491 Y120.97 E.07131
G1 X158.474 Y123.004 E.07131
G1 X157.337 Y124.974 E.07131
G1 X156.084 Y126.872 E.07131
G1 X154.72 Y128.692 E.07131
G1 X153.249 Y130.427 E.07131
G1 X151.686 Y132.062 E.07091
G1 X150.01 Y133.618 E.07171
G1 X148.253 Y135.062 E.07131
G1 X146.413 Y136.399 E.07131
G1 X144.497 Y137.623 E.07131
G1 X142.51 Y138.731 E.07131
G1 X140.461 Y139.718 E.07131
G1 X138.357 Y140.58 E.07131
G1 X136.216 Y141.311 E.07091
G1 X134.012 Y141.92 E.07171
G1 X131.787 Y142.393 E.07131
G1 X129.539 Y142.732 E.07131
G1 X127.273 Y142.936 E.07131
G1 X125 Y143.004 E.07131
G1 X122.727 Y142.936 E.07131
G1 X120.461 Y142.732 E.07131
G1 X118.213 Y142.393 E.07131
G1 X115.988 Y141.92 E.07131
G1 X113.796 Y141.315 E.07131
G1 X111.594 Y140.56 E.07298
M204 S1000
G1 X111.395 Y140.886 F10800
M204 S800
;TYPE:External perimeter
G1 F1200
G1 X109.385 Y140.062 E.06811
G1 X107.316 Y139.066 E.07202
G1 X105.31 Y137.947 E.07202
G1 X103.374 Y136.711 E.07202
G1 X101.516 Y135.361 E.07202
G1 X99.742 Y133.902 E.07202
G1 X98.058 Y132.339 E.07202
G1 X96.471 Y130.679 E.07202
G1 X94.985 Y128.927 E.07202
G1 X93.608 Y127.089 E.07202
G1 X92.342 Y125.172 E.07202
G1 X91.194 Y123.183 E.07202
G1 X90.166 Y121.129 E.07202
G1 X89.264 Y119.017 E.07202
G1 X88.489 Y116.854 E.07202
G1 X87.845 Y114.65 E.07202
G1 X87.334 Y112.41 E.07202
G1 X86.957 Y110.145 E.07202
G1 X86.717 Y107.86 E.07202
G1 X86.614 Y105.566 E.07202
G1 X86.649 Y103.269 E.07202
G1 X86.82 Y100.978 E.07202
G1 X87.129 Y98.702 E.07202
G1 X87.573 Y96.449 E.07202
G1 X88.15 Y94.226 E.07202
G1 X88.86 Y92.041 E.07202
G1 X89.699 Y89.903 E.07202
G1 X90.665 Y87.819 E.07202
G1 X91.753 Y85.796 E.07202
G1 X92.961 Y83.842 E.07202
G1 X94.283 Y81.964 E.07202
G1 X95.715 Y80.168 E.07202
G1 X97.252 Y78.461 E.07202
G1 X98.888 Y76.849 E.07202
G1 X100.618 Y75.338 E.07202
G1 X102.435 Y73.933 E.07202
G1 X104.333 Y72.639 E.07202
G1 X106.294 Y71.468 E.07162
G1 X108.343 Y70.403 E.07242
G1 X110.442 Y69.469 E.07202
G1 X112.592 Y68.662 E.07202
G1 X114.787 Y67.985 E.07202
G1 X117.018 Y67.44 E.07202
G1 X119.278 Y67.03 E.07202
G1 X121.559 Y66.756 E.07202
G1 X123.852 Y66.618 E.07202
G1 X126.148 Y66.618 E.07202
G1 X128.441 Y66.756 E.07202
G1 X130.722 Y67.03 E.07202
G1 X132.982 Y67.44 E.07202
G1 X135.213 Y67.985 E.07202
G1 X137.408 Y68.662 E.07202
G1 X139.558 Y69.469 E.07202
G1 X141.657 Y70.403 E.07202
G1 X143.696 Y71.461 E.07202
G1 X145.667 Y72.639 E.07202
G1 X147.565 Y73.933 E.07202
G1 X149.382 Y75.338 E.07202
G1 X151.112 Y76.849 E.07202
G1 X152.748 Y78.461 E.07202
G1 X154.285 Y80.168 E.07202
G1 X155.717 Y81.964 E.07202
G1 X157.039 Y83.842 E.07202
G1 X158.247 Y85.796 E.07202
G1 X159.335 Y87.819 E.07202
G1 X160.301 Y89.903 E.07202
G1 X161.14 Y92.041 E.07202
G1 X161.85 Y94.226 E.07202
G1 X162.428 Y96.449 E.07202
G1 X162.871 Y98.702 E.07202
G1 X163.18 Y100.978 E.07202
G1 X163.353 Y103.408 E.07637
G1 X163.386 Y105.566 E.06766
G1 X163.283 Y107.86 E.07202
G1 X163.043 Y110.145 E.07202
G1 X162.668 Y112.398 E.07162
G1 X162.155 Y114.65 E.07242
G1 X161.511 Y116.854 E.07202
G1 X160.736 Y119.017 E.07202
G1 X159.834 Y121.129 E.07202
G1 X158.806 Y123.183 E.07202
G1 X157.658 Y125.172 E.07202
G1 X156.392 Y127.089 E.07202
G1 X155.015 Y128.927 E.07202
G1 X153.529 Y130.679 E.07202
G1 X151.951 Y132.33 E.07162
G1 X150.258 Y133.902 E.07242
G1 X148.484 Y135.361 E.07202
G1 X146.626 Y136.711 E.07202
G1 X144.69 Y137.947 E.07202
G1 X142.684 Y139.066 E.07202
G1 X140.615 Y140.062 E.07202
G1 X138.489 Y140.933 E.07202
G1 X136.328 Y141.672 E.07162
G1 X134.102 Y142.287 E.07242
G1 X131.855 Y142.764 E.07202
G1 X129.584 Y143.107 E.07202
G1 X127.296 Y143.313 E.07202
G1 X125 Y143.381 E.07202
G1 X122.704 Y143.313 E.07202
G1 X120.416 Y143.107 E.07202
G1 X118.145 Y142.764 E.07202
G1 X115.899 Y142.287 E.07202
G1 X113.684 Y141.676 E.07202
G1 X111.451 Y140.909 E.07404
M204 S1000
G1 X111.33 Y140.491 F10800
;WIPE_START
G1 F8640
G1 X109.385 Y140.062 E-.51542
G1 X108.431 Y139.603 E-.24458
;WIPE_END
G1 E-.04 F2100
G1 Z.6 F720
G1 X155.754 Y100.308 F10800
G1 Z.2 F720
G1 E.8 F2100
M204 S800
;TYPE:Perimeter
G1 F1200
G1 X155.74 Y100.376 E.00218
G1 X155.579 Y100.57 E.00789
G1 X155.315 Y100.68 E.00899
G1 X155.236 Y100.686 E.00248
G1 X129.779 Y100.686 E.7982
G1 X129.529 Y100.628 E.00802
G1 X129.311 Y100.438 E.00908
G1 X129.213 Y100.12 E.01043
G1 X129.213 Y74.663 E.7982
G1 X129.287 Y74.382 E.0091
G1 X129.473 Y74.186 E.00846
G1 X129.748 Y74.098 E.00905
G1 X131.91 Y74.232 E.06792
G1 X133.845 Y74.497 E.06124
G1 X135.716 Y74.894 E.05996
G1 X137.554 Y75.424 E.05996
G1 X139.31 Y76.071 E.05869
G1 X141.053 Y76.857 E.05996
G1 X142.771 Y77.788 E.06124
G1 X144.347 Y78.796 E.05869
G1 X145.881 Y79.939 E.05996
G1 X147.358 Y81.217 E.06124
G1 X148.682 Y82.541 E.05868
G1 X149.934 Y83.986 E.05996
G1 X151.079 Y85.518 E.05996
G1 X152.131 Y87.163 E.06124
G1 X153.024 Y88.81 E.05874
G1 X153.813 Y90.551 E.05991
G1 X154.487 Y92.384 E.06124
G1 X155.005 Y94.182 E.05869
G1 X155.402 Y96.053 E.05996
G1 X155.666 Y97.989 E.06124
M73 Q2 S41
G1 X155.801 Y100.084 E.06584
G1 X155.766 Y100.25 E.0053
M204 S1000
M73 P2 R41
G1 X155.262 Y100.307 F10800
M204 S800
;TYPE:External perimeter
G1 F1200
G1 X129.779 Y100.309 E.79903
G1 X129.635 Y100.242 E.00496
G1 X129.59 Y100.12 E.00408
G1 X129.59 Y74.663 E.7982
G1 X129.654 Y74.521 E.00488
G1 X129.791 Y74.474 E.00451
G1 X131.886 Y74.609 E.06584
G1 X133.767 Y74.866 E.05954
G1 X135.599 Y75.253 E.05869
G1 X137.411 Y75.774 E.05911
G1 X139.193 Y76.43 E.05954
G1 X140.898 Y77.201 E.05869
G1 X142.556 Y78.099 E.05911
G1 X144.144 Y79.114 E.05911
G1 X145.666 Y80.25 E.05954
G1 X147.092 Y81.484 E.05911
G1 X148.415 Y82.807 E.05868
G1 X149.649 Y84.233 E.05911
G1 X150.785 Y85.754 E.05954
G1 X151.794 Y87.334 E.05878
G1 X152.692 Y88.989 E.05904
G1 X153.474 Y90.719 E.05952
G1 X154.12 Y92.475 E.05869
G1 X154.643 Y94.287 E.05911
G1 X155.033 Y96.131 E.05911
M73 P2 R40
G1 X155.29 Y98.013 E.05954
G1 X155.424 Y100.108 E.06584
G1 X155.372 Y100.251 E.00478
G1 X155.316 Y100.28 E.00197
M204 S1000
G1 X155.172 Y100.697 F10800
;WIPE_START
G1 F8640
G1 X152.024 Y100.283 E-.76
;WIPE_END
G1 E-.04 F2100
G1 Z.6 F720
G1 X155.788 Y109.788 F10800
G1 Z.2 F720
G1 E.8 F2100
M204 S800
;TYPE:Perimeter
G1 F1200
G1 X155.801 Y109.899 E.0035
G1 X155.666 Y111.994 E.06584
G1 X155.402 Y113.929 E.06124
G1 X155.015 Y115.761 E.05869
G1 X154.487 Y117.599 E.05996
G1 X153.813 Y119.432 E.06124
G1 X153.023 Y121.174 E.05996
G1 X152.131 Y122.819 E.05869
G1 X151.102 Y124.431 E.05996
G1 X149.934 Y125.997 E.06124
G1 X148.709 Y127.412 E.05869
G1 X147.358 Y128.766 E.05996
G1 X145.881 Y130.044 E.06124
G1 X144.381 Y131.163 E.05869
G1 X142.77 Y132.195 E.05997
G1 X141.09 Y133.107 E.05996
G1 X139.31 Y133.912 E.06124
G1 X137.515 Y134.571 E.05996
G1 X135.716 Y135.089 E.05869
G1 X133.845 Y135.486 E.05996
G1 X131.951 Y135.746 E.05996
G1 X129.815 Y135.884 E.06712
G1 X129.595 Y135.855 E.00695
G1 X129.377 Y135.718 E.00807
G1 X129.235 Y135.476 E.00881
G1 X129.213 Y135.32 E.00493
G1 X129.213 Y109.862 E.7982
G1 X129.275 Y109.606 E.00828
G1 X129.469 Y109.389 E.00912
G1 X129.779 Y109.297 E.01013
G1 X155.236 Y109.297 E.7982
G1 X155.513 Y109.369 E.00899
G1 X155.719 Y109.567 E.00894
G1 X155.77 Y109.73 E.00535
M204 S1000
G1 X155.424 Y109.875 F10800
M204 S800
;TYPE:External perimeter
G1 F1200
G1 X155.29 Y111.97 E.06584
G1 X155.033 Y113.851 E.05954
G1 X154.646 Y115.683 E.05869
G1 X154.125 Y117.494 E.05911
G1 X153.469 Y119.277 E.05954
G1 X152.692 Y120.994 E.05911
G1 X151.8 Y122.64 E.05869
G1 X150.785 Y124.228 E.05911
G1 X149.649 Y125.75 E.05954
G1 X148.415 Y127.175 E.05911
G1 X147.092 Y128.499 E.05868
G1 X145.656 Y129.741 E.05954
G1 X144.154 Y130.862 E.05876
G1 X142.567 Y131.877 E.05904
G1 X140.91 Y132.776 E.05911
G1 X139.18 Y133.558 E.05954
G1 X137.411 Y134.209 E.05911
G1 X135.612 Y134.726 E.05869
G1 X133.767 Y135.117 E.05911
G1 X131.9 Y135.373 E.05911
G1 X129.791 Y135.508 E.06626
G1 X129.645 Y135.453 E.00489
G1 X129.59 Y135.32 E.0045
G1 X129.59 Y109.862 E.7982
G1 X129.659 Y109.716 E.00507
G1 X129.779 Y109.674 E.00397
G1 X155.236 Y109.674 E.7982
G1 X155.381 Y109.742 E.00501
G1 X155.406 Y109.817 E.0025
M204 S1000
G1 X155.805 Y109.998 F10800
;WIPE_START
G1 F8640
G1 X155.29 Y111.97 E-.49774
G1 X155.136 Y113.095 E-.26226
;WIPE_END
G1 E-.04 F2100
G1 Z.6 F720
G1 X120.244 Y135.882 F10800
G1 Z.2 F720
G1 E.8 F2100
M204 S800
;TYPE:Perimeter
G1 F1200
G1 X118.09 Y135.75 E.06768
G1 X116.195 Y135.493 E.05996
G1 X114.323 Y135.099 E.05996
G1 X113.533 Y134.873 E.02578
G1 X112.485 Y134.571 E.03418
G1 X110.69 Y133.912 E.05996
G1 X108.947 Y133.125 E.05996
G1 X108.272 Y132.761 E.02403
G1 X107.265 Y132.215 E.03593
G1 X105.653 Y131.186 E.05996
G1 X104.098 Y130.027 E.0608
G1 X102.672 Y128.793 E.05913
G1 X101.318 Y127.442 E.05996
G1 X100.062 Y125.992 E.06014
G1 X98.921 Y124.465 E.05979
G1 X98.494 Y123.8 E.02479
G1 X97.889 Y122.855 E.03517
G1 X96.977 Y121.174 E.05996
G1 X96.187 Y119.432 E.05996
G1 X95.526 Y117.638 E.05996
G1 X95.324 Y116.941 E.02272
G1 X94.995 Y115.8 E.03724
