; generated by PrusaSlicer 2.5.0+win64 on 2022-09-26 at 15:48:43 UTC


;
;
; 

; external perimeters extrusion width = 0.60mm
; perimeters extrusion width = 0.50mm
; infill extrusion width = 0.50mm
; solid infill extrusion width = 0.50mm
; top infill extrusion width = 0.45mm
; first layer extrusion width = 0.42mm

M73 P0 R42
M73 Q0 S43
M201 X1000 Y1000 Z200 E5000 ; sets maximum accelerations, mm/sec^2
M203 X200 Y200 Z12 E120 ; sets maximum feedrates, mm / sec
M204 P1250 R1250 T1250 ; sets acceleration (P, T) and retract acceleration (R), mm/sec^2
M205 X8.00 Y8.00 Z0.40 E4.50 ; sets the jerk limits, mm/sec
M205 S0 T0 ; sets the minimum extruding and travel feed rate, mm/sec
M107
;TYPE:Custom
M862.3 P "MK3S" ; printer model check
M862.1 P0.4 ; nozzle diameter check
M115 U3.11.0 ; tell printer latest fw version
G90 ; use absolute coordinates
M83 ; extruder relative mode
M104 S215 ; set extruder temp
M140 S60 ; set bed temp
M190 S60 ; wait for bed temp
M109 S215 ; wait for extruder temp
G28 W ; home all without mesh bed level
G80 ; mesh bed leveling

G1 Z0.2 F720
G1 Y-3 F1000 ; go outside print area
G92 E0
G1 X60 E9 F1000 ; intro line
G1 X100 E12.5 F1000 ; intro line

G92 E0
M221 S95

; Don't change E values below. Excessive value can damage the printer.

M907 E538 ; set extruder motor current
G21 ; set units to millimeters
G90 ; use absolute coordinates
M83 ; use relative distances for extrusion
M900 K0.05 ; Filament gcode LA 1.5
M900 K30 ; Filament gcode LA 1.0
M107
;LAYER_CHANGE
;Z:0.2
;HEIGHT:0.2
;BEFORE_LAYER_CHANGE
G92 E0.0
;0.2


G1 E-.8 F2100
G1 Z.4 F720
;AFTER_LAYER_CHANGE
;0.2
G1 X155.186 Y79.282 F10800
G1 Z.2 F720
G1 E.8 F2100
M204 S800
;TYPE:Skirt/Brim
;WIDTH:0.42
G1 F900
G1 X156.232 Y78.405 E.04278
G1 X157.587 Y78.248 E.04278
G1 X158.839 Y78.894 E.04416
G1 X160.548 Y80.582 E.07533
G1 X162.196 Y82.416 E.07729
G1 X163.645 Y84.231 E.07283
G1 X165.069 Y86.243 E.07728
G1 X166.369 Y88.336 E.07727
G1 X167.542 Y90.504 E.07727
G1 X168.639 Y92.868 E.08173
G1 X169.536 Y95.163 E.07726
G1 X170.255 Y97.371 E.0728
G1 X170.88 Y99.754 E.07726
G1 X171.361 Y102.171 E.07725
G1 X171.696 Y104.612 E.07725
G1 X171.876 Y106.947 E.07343
G1 X171.924 Y109.674 E.08553
G1 X171.819 Y111.993 E.07279
G1 X171.566 Y114.444 E.07725
G1 X171.166 Y116.875 E.07725
G1 X170.621 Y119.278 E.07726
G1 X169.889 Y121.78 E.08172
G1 X169.053 Y124.098 E.07726
G1 X168.079 Y126.362 E.07726
G1 X167.039 Y128.438 E.07281
G1 X165.81 Y130.574 E.07727
G1 X164.454 Y132.632 E.07728
G1 X162.978 Y134.606 E.07728
G1 X161.386 Y136.488 E.07729
G1 X159.589 Y138.365 E.08147
G1 X158.788 Y139.107 E.03425
G1 X157.563 Y139.709 E.04278
G1 X156.21 Y139.538 E.04278
G1 X155.173 Y138.651 E.04278
G1 X154.795 Y137.364 E.04205
G1 X154.795 Y80.589 E1.78017
G1 X155.169 Y79.339 E.0409
M204 S1000
; printing object top_pump.stl id:0 copy 0
;WIPE_START
M73 Q0 S42
G1 F8640
G1 X156.232 Y78.405 E-.32671
G1 X157.587 Y78.248 E-.31505
G1 X158.042 Y78.483 E-.11824
;WIPE_END
G1 E-.04 F2100
G1 Z.6 F720
G1 X167.831 Y98.435 F10800
G1 Z.2 F720
G1 E.8 F2100
M204 S800
;TYPE:External perimeter
;WIDTH:0.421947
G1 F900
G1 X168.212 Y99.932 E.04869
;WIDTH:0.423445
G1 X168.219 Y99.984 E.00166
;WIDTH:0.433952
G1 X168.385 Y101.462 E.04834
;WIDTH:0.448044
G1 X168.417 Y101.795 E.01127
;WIDTH:0.483212
G1 X168.482 Y102.252 E.0169
;WIDTH:0.518379
G1 X168.547 Y102.709 E.01825
;WIDTH:0.567501
G1 X168.62 Y103.434 E.0318
G1 X168.663 Y103.563 E.0059
;WIDTH:0.518334
G1 X168.705 Y103.691 E.00535
;WIDTH:0.469167
G1 X168.747 Y103.82 E.00479
;WIDTH:0.419999
G1 X168.904 Y104.974 E.03652
G1 X169.076 Y107.265 E.07202
G1 X169.11 Y109.561 E.07202
G1 X169.007 Y111.856 E.07202
G1 X168.767 Y114.13 E.0717
;WIDTH:0.468867
G1 X168.718 Y114.282 E.00567
;WIDTH:0.517734
G1 X168.669 Y114.435 E.00632
;WIDTH:0.566601
G1 X168.619 Y114.587 E.00698
G1 X168.563 Y115.044 E.02006
;WIDTH:0.53095
G1 X168.506 Y115.502 E.0187
;WIDTH:0.495299
G1 X168.45 Y115.959 E.01733
;WIDTH:0.459648
G1 X168.441 Y116.052 E.00325
;WIDTH:0.453812
G1 X168.385 Y116.57 E.01777
;WIDTH:0.436264
G1 X168.239 Y117.797 E.04043
;WIDTH:0.42404
G1 X168.196 Y118.056 E.00832
;WIDTH:0.413517
G1 X168.074 Y118.7 E.02019
G1 X167.825 Y119.55 E.02729
G1 X167.827 Y118.67 E.0271
;WIDTH:0.42404
G1 X167.861 Y117.754 E.02906
;WIDTH:0.436264
G1 X167.995 Y116.525 E.04043
;WIDTH:0.436685
G1 X167.996 Y116.516 E.00031
;WIDTH:0.459648
G1 X168.036 Y115.924 E.02055
;WIDTH:0.495299
G1 X168.057 Y115.464 E.01733
;WIDTH:0.53095
G1 X168.078 Y115.003 E.0187
;WIDTH:0.566601
G1 X168.099 Y114.543 E.02006
G1 X168.075 Y114.411 E.00586
;WIDTH:0.517734
G1 X168.05 Y114.279 E.00531
;WIDTH:0.468867
G1 X168.026 Y114.146 E.00476
;WIDTH:0.419999
G1 X168.025 Y103.869 E.32225
;WIDTH:0.469167
G1 X168.049 Y103.736 E.00479
;WIDTH:0.518334
G1 X168.074 Y103.603 E.00535
;WIDTH:0.567501
G1 X168.098 Y103.47 E.0059
G1 X168.081 Y102.993 E.02082
;WIDTH:0.532523
G1 X168.063 Y102.516 E.01943
;WIDTH:0.497545
G1 X168.03 Y102.01 E.01916
;WIDTH:0.465749
G1 X167.996 Y101.504 E.01782
;WIDTH:0.433952
G1 X167.841 Y100.026 E.04834
;WIDTH:0.423445
G1 X167.839 Y99.98 E.00144
;WIDTH:0.421947
G1 X167.832 Y98.495 E.0468
M204 S1000
;WIPE_START
G1 F8640
G1 X168.212 Y99.932 E-.34328
G1 X168.219 Y99.984 E-.01212
G1 X168.385 Y101.462 E-.34331
G1 X168.41 Y101.726 E-.06129
;WIPE_END
G1 E-.04 F2100
G1 Z.6 F720
G1 X168.393 Y114.146 F10800
G1 Z.2 F720
G1 E.8 F2100
M204 S800
;TYPE:Perimeter
;WIDTH:0.409466
G1 F900
G1 X168.398 Y114.091 E.00169
;WIDTH:0.457218
G1 X168.421 Y113.637 E.01567
;WIDTH:0.50497
G1 X168.445 Y113.182 E.01748
;WIDTH:0.552721
G1 X168.469 Y112.728 E.01929
;WIDTH:0.600473
G1 X168.493 Y112.274 E.02109
;WIDTH:0.648224
G1 X168.517 Y111.819 E.0229
;WIDTH:0.682268
G1 X168.534 Y111.064 E.04016
;WIDTH:0.716311
G1 X168.551 Y110.309 E.0423
;WIDTH:0.750354
G1 X168.568 Y109.553 E.04444
G1 X168.55 Y107.288 E.13324
;WIDTH:0.716716
G1 X168.529 Y106.721 E.03179
;WIDTH:0.674297
G1 X168.508 Y106.154 E.02979
;WIDTH:0.631877
G1 X168.487 Y105.587 E.02779
;WIDTH:0.589458
G1 X168.465 Y105.02 E.02578
;WIDTH:0.547038
G1 X168.446 Y104.733 E.0121
;WIDTH:0.508213
G1 X168.426 Y104.445 E.01117
;WIDTH:0.469388
G1 X168.407 Y104.157 E.01023
;WIDTH:0.430563
G1 X168.388 Y103.869 E.0093
M204 S1000
; stop printing object top_pump.stl id:0 copy 0
M106 S84.15
;LAYER_CHANGE
;Z:0.5
;HEIGHT:0.3
;BEFORE_LAYER_CHANGE
G92 E0.0
;0.5


;WIPE_START
G1 F8640
G1 X168.407 Y104.157 E-.06664
G1 X168.426 Y104.445 E-.06663
G1 X168.446 Y104.733 E-.06663
G1 X168.465 Y105.02 E-.06663
G1 X168.487 Y105.587 E-.13101
G1 X168.508 Y106.154 E-.13101
G1 X168.529 Y106.721 E-.13101
G1 X168.545 Y107.156 E-.10043
;WIPE_END
G1 E-.04 F2100
G1 Z.6 F720
;AFTER_LAYER_CHANGE
;0.5
G1 X171.878 Y107.097 F10800
G1 Z.5 F720
G1 E.8 F2100
;TYPE:Skirt/Brim
;WIDTH:0.42
G1 F2700
G1 X171.924 Y109.674 E.11433
G1 X171.819 Y111.993 E.10297
G1 X171.566 Y114.444 E.10928
G1 X171.166 Y116.875 E.10928
G1 X170.621 Y119.278 E.10929
G1 X169.889 Y121.78 E.1156
G1 X169.053 Y124.098 E.1093
G1 X168.079 Y126.362 E.1093
G1 X167.039 Y128.438 E.103
G1 X165.81 Y130.574 E.10931
G1 X164.454 Y132.632 E.10932
G1 X162.978 Y134.606 E.10933
G1 X161.386 Y136.488 E.10934
G1 X159.589 Y138.365 E.11525
G1 X158.788 Y139.107 E.04845
G1 X157.563 Y139.709 E.06052
G1 X156.21 Y139.538 E.06052
G1 X155.173 Y138.651 E.06052
G1 X154.795 Y137.364 E.05949
G1 X154.795 Y80.589 E2.51828
G1 X155.186 Y79.282 E.06052
G1 X156.232 Y78.405 E.06052
G1 X157.587 Y78.248 E.06052
G1 X158.839 Y78.894 E.06247
G1 X160.548 Y80.582 E.10656
G1 X162.196 Y82.416 E.10934
G1 X163.645 Y84.231 E.10302
G1 X165.069 Y86.243 E.10932
G1 X166.369 Y88.336 E.10932
G1 X167.542 Y90.504 E.10931
G1 X168.639 Y92.868 E.11562
G1 X169.536 Y95.163 E.1093
G1 X170.255 Y97.371 E.10298
G1 X170.88 Y99.754 E.10929
G1 X171.361 Y102.171 E.10929
G1 X171.696 Y104.612 E.10928
G1 X171.877 Y107.037 E.10787
; printing object top_pump.stl id:0 copy 0
;WIPE_START
G1 F8640
G1 X171.924 Y109.674 E-.60902
G1 X171.894 Y110.328 E-.15098
;WIPE_END
G1 E-.04 F2100
G1 Z.9 F720
G1 X167.416 Y118.931 F10800
G1 Z.5 F720
G1 E.8 F2100
M204 S800
;TYPE:Overhang perimeter
;WIDTH:0.5
G1 F1500
G1 X166.889 Y120.734 E.10204
G1 X166.12 Y122.875 E.12359
G1 X165.225 Y124.966 E.1236
G1 X164.206 Y127 E.12361
G1 X163.654 Y127.956 E.05995
G1 X163.654 Y89.985 E2.06306
G1 X164.731 Y91.983 E.12334
M73 P1 R42
M73 Q1 S42
G1 X165.688 Y94.047 E.1236
G1 X166.52 Y96.164 E.1236
G1 X167.224 Y98.327 E.12359
G1 X167.416 Y99.063 E.04133
;TYPE:Perimeter
G1 F3000
G1 X167.797 Y100.528 E.08225
G1 X168.237 Y102.76 E.12358
G1 X168.543 Y105.014 E.12358
G1 X168.714 Y107.357 E.12769
G1 X168.747 Y109.556 E.11945
G1 X168.645 Y111.828 E.12357
G1 X168.407 Y114.09 E.12357
G1 X168.034 Y116.333 E.12358
G1 X167.527 Y118.551 E.12358
G1 X167.433 Y118.874 E.01829
M204 S1000
;WIPE_START
G1 F8640
G1 X166.889 Y120.734 E-.44751
G1 X166.431 Y122.008 E-.31249
;WIPE_END
G1 E-.04 F2100
G1 Z.9 F720
G1 X163.169 Y129.698 F10800
G1 Z.5 F720
G1 E.8 F2100
M204 S800
;TYPE:Overhang perimeter
;WIDTH:0.6
G1 F1500
G1 X163.169 Y88.277 E2.76716
G1 X164.072 Y89.737 E.11473
G1 X165.165 Y91.766 E.15393
G1 X166.135 Y93.856 E.15392
G1 X166.978 Y96 E.15391
G1 X167.416 Y97.347 E.0946
;TYPE:External perimeter
G1 F2100
G1 X167.691 Y98.191 E.0593
G1 X168.271 Y100.42 E.1539
G1 X168.717 Y102.68 E.15389
G1 X169.026 Y104.963 E.15389
G1 X169.2 Y107.35 E.15991
G1 X169.233 Y109.563 E.14785
G1 X169.13 Y111.864 E.15388
G1 X168.889 Y114.155 E.15389
G1 X168.511 Y116.427 E.15389
G1 X167.997 Y118.673 E.15389
G1 X167.416 Y120.661 E.13836
;TYPE:Overhang perimeter
G1 F1500
G1 X167.351 Y120.884 E.01554
G1 X166.572 Y123.053 E.15391
G1 X165.666 Y125.171 E.15392
G1 X164.634 Y127.231 E.15393
G1 X163.481 Y129.226 E.15394
G1 X163.202 Y129.648 E.03381
M204 S1000
;WIPE_START
G1 F8640
G1 X163.199 Y126.357 E-.76
;WIPE_END
G1 E-.04 F2100
G1 Z.9 F720
G1 X164.976 Y125.174 F10800
G1 Z.5 F720
G1 E.8 F2100
;TYPE:Bridge infill
;WIDTH:0.482793
G1 F1500
G1 X163.97 Y126.18 E.07427
G1 X163.97 Y125.588 E.03088
G1 X165.098 Y124.46 E.08327
G1 X165.541 Y123.426 E.05872
G1 X163.97 Y124.997 E.11595
G1 X163.97 Y124.405 E.03088
G1 X165.944 Y122.431 E.1457
G1 X166.275 Y121.508 E.05117
G1 X163.97 Y123.813 E.17014
G1 X163.97 Y123.222 E.03088
G1 X166.602 Y120.59 E.19423
G1 X166.846 Y119.753 E.04548
G1 X163.97 Y122.63 E.21228
G1 X163.97 Y122.038 E.03088
G1 X167.091 Y118.917 E.23034
G1 X167.303 Y118.113 E.0434
G1 X163.97 Y121.446 E.24601
G1 X163.97 Y120.855 E.03088
G1 X167.479 Y117.346 E.25895
G1 X167.654 Y116.579 E.04106
G1 X163.97 Y120.263 E.27189
G1 X163.97 Y119.671 E.03088
G1 X167.795 Y115.846 E.28229
G1 X167.913 Y115.137 E.03755
G1 X163.97 Y119.079 E.291
G1 X163.97 Y118.488 E.03088
G1 X168.031 Y114.427 E.29971
G1 X168.126 Y113.74 E.03621
G1 X163.97 Y117.896 E.30676
G1 X163.97 Y117.304 E.03088
G1 X168.196 Y113.078 E.3119
G1 X168.266 Y112.417 E.0347
G1 X163.97 Y116.713 E.31703
G1 X163.97 Y116.121 E.03088
G1 X168.332 Y111.759 E.32195
G1 X168.36 Y111.139 E.03237
G1 X163.97 Y115.529 E.324
G1 X163.97 Y114.937 E.03088
G1 X168.388 Y110.519 E.32606
G1 X168.416 Y109.9 E.03237
G1 X163.97 Y114.346 E.32811
G1 X163.97 Y113.754 E.03088
G1 X168.428 Y109.296 E.32899
G1 X168.419 Y108.713 E.03043
G1 X163.97 Y113.162 E.32835
G1 X163.97 Y112.571 E.03088
G1 X168.41 Y108.13 E.3277
G1 X168.401 Y107.547 E.03043
G1 X163.97 Y111.979 E.32706
G1 X163.97 Y111.387 E.03088
G1 X168.374 Y106.983 E.32505
G1 X168.333 Y106.432 E.02881
G1 X163.97 Y110.795 E.322
G1 X163.97 Y110.204 E.03088
G1 X168.292 Y105.882 E.31895
G1 X168.25 Y105.332 E.02881
G1 X163.97 Y109.612 E.3159
G1 X163.97 Y109.02 E.03088
G1 X168.195 Y104.795 E.31181
G1 X168.124 Y104.274 E.02744
G1 X163.97 Y108.428 E.30659
G1 X163.97 Y107.837 E.03088
G1 X168.053 Y103.753 E.30137
G1 X167.983 Y103.232 E.02744
G1 X163.97 Y107.245 E.29616
G1 X163.97 Y106.653 E.03088
G1 X167.907 Y102.716 E.29056
G1 X167.809 Y102.222 E.02629
G1 X163.97 Y106.062 E.28336
G1 X163.97 Y105.47 E.03088
G1 X167.712 Y101.728 E.27617
G1 X167.614 Y101.234 E.02629
G1 X163.97 Y104.878 E.26898
G1 X163.97 Y104.286 E.03088
G1 X167.517 Y100.739 E.26178
G1 X167.402 Y100.263 E.02559
G1 X163.97 Y103.695 E.25328
G1 X163.97 Y103.103 E.03088
G1 X167.28 Y99.793 E.24426
G1 X167.157 Y99.324 E.02532
G1 X163.97 Y102.511 E.23524
G1 X163.97 Y101.919 E.03088
G1 X167.035 Y98.854 E.22622
G1 X166.911 Y98.386 E.02526
G1 X163.97 Y101.328 E.21709
G1 X163.97 Y100.736 E.03088
G1 X166.766 Y97.94 E.20637
G1 X166.621 Y97.493 E.0245
G1 X163.97 Y100.144 E.19565
G1 X163.97 Y99.553 E.03088
G1 X166.476 Y97.047 E.18492
G1 X166.33 Y96.6 E.0245
G1 X163.97 Y98.961 E.1742
G1 X163.97 Y98.369 E.03088
G1 X166.179 Y96.16 E.16306
G1 X166.012 Y95.735 E.02382
G1 X163.97 Y97.777 E.15074
G1 X163.97 Y97.186 E.03088
G1 X165.846 Y95.31 E.13842
G1 X165.679 Y94.885 E.02382
G1 X163.97 Y96.594 E.1261
G1 X163.97 Y96.002 E.03088
G1 X165.512 Y94.461 E.11378
G1 X165.338 Y94.042 E.02363
G1 X163.97 Y95.411 E.10097
G1 X163.97 Y94.819 E.03088
G1 X165.15 Y93.638 E.08713
G1 X164.963 Y93.234 E.02325
G1 X163.97 Y94.227 E.07328
G1 X163.97 Y93.635 E.03088
G1 X164.775 Y92.83 E.05943
G1 X164.588 Y92.426 E.02325
G1 X163.97 Y93.044 E.04559
G1 X163.97 Y92.452 E.03088
G1 X164.396 Y92.026 E.03141
G1 X164.188 Y91.642 E.02279
G1 X163.784 Y92.046 E.02986
; stop printing object top_pump.stl id:0 copy 0
M106 S170.85
;LAYER_CHANGE
;Z:0.8
;HEIGHT:0.3
;BEFORE_LAYER_CHANGE
G92 E0.0
;0.8


;WIPE_START
G1 F8640
G1 X164.188 Y91.642 E-.13211
G1 X164.396 Y92.026 E-.10086
G1 X163.97 Y92.452 E-.13896
G1 X163.97 Y93.044 E-.13663
G1 X164.588 Y92.426 E-.2017
G1 X164.678 Y92.621 E-.04974
;WIPE_END
G1 E-.04 F2100
G1 Z.9 F720
;AFTER_LAYER_CHANGE
;0.8
G1 X167.843 Y91.153 F10800
G1 Z.8 F720
G1 E.8 F2100
;TYPE:Skirt/Brim
;WIDTH:0.42
G1 F2700
G1 X168.639 Y92.868 E.08386
G1 X169.536 Y95.163 E.1093
G1 X170.255 Y97.371 E.10298
G1 X170.88 Y99.754 E.10929
G1 X171.361 Y102.171 E.10929
G1 X171.696 Y104.612 E.10928
G1 X171.876 Y106.947 E.10388
G1 X171.924 Y109.674 E.12099
G1 X171.819 Y111.993 E.10297
G1 X171.566 Y114.444 E.10928
G1 X171.166 Y116.875 E.10928
G1 X170.621 Y119.278 E.10929
G1 X169.889 Y121.78 E.1156
G1 X169.053 Y124.098 E.1093
G1 X168.079 Y126.362 E.1093
G1 X167.039 Y128.438 E.103
G1 X165.81 Y130.574 E.10931
G1 X164.454 Y132.632 E.10932
G1 X162.978 Y134.606 E.10933
G1 X161.386 Y136.488 E.10934
G1 X159.589 Y138.365 E.11525
G1 X158.788 Y139.107 E.04845
G1 X157.563 Y139.709 E.06052
G1 X156.21 Y139.538 E.06052
G1 X155.173 Y138.651 E.06052
G1 X154.795 Y137.364 E.05949
G1 X154.795 Y80.589 E2.51828
G1 X155.186 Y79.282 E.06052
G1 X156.232 Y78.405 E.06052
G1 X157.587 Y78.248 E.06052
G1 X158.839 Y78.894 E.06247
G1 X160.548 Y80.582 E.10656
G1 X162.196 Y82.416 E.10934
G1 X163.645 Y84.231 E.10302
G1 X165.069 Y86.243 E.10932
G1 X166.369 Y88.336 E.10932
G1 X167.542 Y90.504 E.10931
G1 X167.818 Y91.099 E.02909
; printing object top_pump.stl id:0 copy 0
;WIPE_START
G1 F8640
G1 X168.639 Y92.868 E-.45043
G1 X169.127 Y94.117 E-.30957
;WIPE_END
G1 E-.04 F2100
G1 Z1.2 F720
G1 X162.669 Y129.593 F10800
G1 Z.8 F720
G1 E.8 F2100
M204 S800
;TYPE:Overhang perimeter
;WIDTH:0.5
G1 F1500
G1 X161.828 Y130.869 E.08299
G1 X160.463 Y132.688 E.1236
G1 X158.99 Y134.423 E.12365
G1 X157.957 Y135.502 E.08112
G1 X157.957 Y126.645 E.48123
G1 X158.78 Y125.127 E.09381
G1 X159.567 Y123.383 E.10393
G1 X160.21 Y121.64 E.10097
G1 X160.741 Y119.802 E.10392
G1 X161.149 Y117.878 E.10687
G1 X161.406 Y115.983 E.10391
G1 X161.527 Y114.096 E.10275
G1 X161.503 Y113.853 E.01324
G1 X161.349 Y113.559 E.01805
G1 X161.093 Y113.364 E.01749
G1 X160.775 Y113.294 E.01765
G1 X157.957 Y113.294 E.15311
G1 X157.957 Y104.68 E.46802
G1 X160.775 Y104.68 E.15311
G1 X161.028 Y104.637 E.01392
G1 X161.314 Y104.453 E.01847
G1 X161.486 Y104.178 E.01762
G1 X161.527 Y103.879 E.01643
G1 X161.406 Y101.991 E.10275
G1 X161.149 Y100.096 E.10391
G1 X160.741 Y98.172 E.10687
G1 X160.21 Y96.335 E.10392
G1 X159.567 Y94.591 E.10097
G1 X158.78 Y92.848 E.10393
G1 X157.957 Y91.33 E.09381
G1 X157.957 Y82.464 E.48171
G1 X158.204 Y82.706 E.01881
G1 X159.739 Y84.408 E.12451
G1 X161.159 Y86.186 E.12363
M73 Q2 S42
G1 X162.47 Y88.046 E.12363
M73 P2 R42
G1 X162.669 Y88.366 E.02047
;TYPE:Perimeter
G1 F3000
G1 X163.668 Y89.98 E.10315
